X:99
T:Jesus, In Thy Dying Woes
%%stretchlast false
M:4/4
L:1/4
K:F clef=C1
"^vi"[DAdf] [DAdf] "^ii"[G,Bdg] "^vi"[DAdf] | "^III7"[A,G_de]3/2 "^vi"[DFd]/ [DFd]2 | "^vi¹"[FAd] "^vi"[DAdf] "^III7³"[GA_de] "^vi¹"[FAd] | "^III7¹"[_DAeg] "^vi"[DAdf] "^III"[A,A_de]2 | "^iii"[Ace] [Acea] "^V¹"[EGcc'] "^I"[FAfa] | "^V"[CGec'] "^V7¹"[Ecgb] "^I"[Fcfa]2 | [FAca] "^III7²"[EG_da] "^vi"[DFda] [DAdf] | "^viiø7¹"[G,Bde] "^V/vi"[A,A_de] "^vi"[DFd]2 |]
